X: 141008
T: SHULE AGRA
Q: "Slow."
%R: air
B: James Kerr "Merry Melodies" v.1 p.41 s.0 #8
Z: 2016 John Chambers <jc:trillian.mit.edu>
M: C
L: 1/8
K: Am
vAB |\
c2c2 B2B2 | ABAG E2(E^F) | G2A2 G2E2 | G2E2 D2(ED) |\
C2C2 D2D2 | E2E2 He2d2 | c2c2 BdcB | A4 A2z2 |]
c4 B4 | (AB)AG E4 | G2A2 G2E2 | G2E2 D2(ED) |\
C2C2 D2D2 | E2E2 He2d2 | c2c2 BdcB | A4 A2 |]

%%sep 1 1 500
%%sep 1 1 500

